**kern
*staff2
*tb16
=1-
*clefG2
*k[f#c#g#]
*M3/8
16e/LL
16a/JJ
8r
.
8r
.
=2
16d#/LL
16a/
16b#/
16d#/
16e/
16a/JJ
=3
16d#/LL
16a/
16b#/
16d#/
16e/
16a/JJ
=4
16gn/LL
16a/
16f#/
16a/
16fn/
16a/JJ
=5
16e/LL
16a/
16cc#/
16a/
16e/
16c#/JJ
=6
!!linebreak:original
16d#/LL
16f#/
16d#/
16f#/
16dn/
16g#/JJ
=7
16c#/LL
16e/
16a/
16e/
16c#/
16A/JJ
=8
16cn/LL 16e/LL
16A/
16c/ 16e/
16A/
16c/ 16e/
16A/JJ
=9
16d/LL 16e/LL
16B/
16d/ 16e/
16B/
16cn/ 16e/
16A/JJ
=10
!!linebreak:original
8r
.
16ee/LL
16gg#/
16e/
16gg#/JJ
=11
16ee/LL
16gg#/
16e\
16g#\
16b\
16g#\JJ
=12
16G#/LL 16e/LL
16B/
16G#/ 16e/
16B/
16G#/ 16e/
16B/JJ
=13
16Gn/LL
16c#/
16e/
16gn/
16e/
16c#/JJ
=14
16d/LL 16b/LL
16f#/
16d/ 16b/
16f#/
16e/ 16a#/
16f#/JJ
=15
!!linebreak:original
16d/LL 16b/LL
16f#/
16d/
16B/
16d/
16f#/JJ
=16
16d/LL
16f#/
16d/
16f#/
16d/
16fn/JJ
=17
16c#/LL 16a/LL
16e/
16c#/
16e/
16d/ 16g#/
16e/JJ
=18
16c#/LL 16a/LL
16e/
16c#/ 16a/
16e/
16c#/ 16a/
16e/JJ
=19
!!linebreak:original
16c#/LL 16a/LL
16e/
16d/ 16a/
16g#/
16e/ 16a/
16gn/JJ
=20
4.d/ 4.f#/
.
.
.
.
.
=21
16d/LL 16g#/LL
16e/
16g#/
16e/
16d/ 16g#/
16e/JJ
=22
16c#/LL 16a/LL
16e/
16a/
16cc#/
16ee/
16cc#/JJ
=23
4a/
.
.
.
==
*-
